X:1
T:Title
%%score { ( 1 4 ) | ( 2 3 ) }
L:1/8
Q:1/4=90
M:6/8
K:A
V:1 treble nm="Grand Piano"
V:4 treble 
V:2 bass 
V:3 bass 
V:1
 [Ec][Ec][Ec] [Fd][Ec][DB]/[DB]/ | [DA]2 [DF] [CE]2 [CE] | [CA][CA][CA] [^DF][DG][DA] | [EB]6 | %4
w: J.~Lincoln~Hall * * * * * *||||
 [Ec][Ec][Ec] [Fd][Ec][DB] | [FA][EG][DF] [CE]2 [CE] | [CA]AA GcB | [CA]6 | [Ec]3 z3 | [Ec]3 z3 | %10
w: ||||||
 [DA]3[K:bass][K:treble] z3 | [CE]6 | [Ec]3 z3 | [Ec]3 z3 | [^DF]3 z3 | B6 | [Ec]3 z3 | [Ec]3 z3 | %18
w: ||||||||
 [=GA]3 z3 | [Fd]6 | [Fd]3 .d3 | [CE]3 z3 | [Ec]3 z3 | A6 |] %24
w: ||||||
V:2
 [A,,A,][A,,A,][A,,A,] [A,,A,][A,,A,][A,,A,]/[A,,A,]/ | [D,F,]2 [D,A,] [A,,A,]2 [A,,A,] | %2
 [F,A,]2 [F,A,] [B,,A,]2 [B,,A,] | [E,G,]6 | [A,,A,][A,,A,][A,,A,] [A,,A,]2 [A,,A,] | %5
 [D,A,]2 [D,A,] [A,,A,]2 [A,,A,] | z C[E,A,C] [E,B,D][E,A,E][E,G,D] | [A,,A,]6 | %8
 [A,,A,]A,,A,, z E^D | [A,,A,]A,,A,, [A,,E,]3 | [D,F,]D,D, z FD, | A,,A,,A,, A,,3 | %12
 [A,,A,]A,,A,, z E^D | [A,,A,]A,,A,, [A,,E,]3 | [B,,A,]B,,B,, [B,,A,]2 [B,,A,] | [G,E]B,A, G,F,G, | %16
 [A,,A,]A,,A,, z E^D | [A,,A,]A,,A,, [A,,E,]3 | [A,C]A,A, z DA, | D,D,D, D,3 | [D,A,]D,D, z2 D | %21
 A,,A,,A,, [A,,E,]3 | [E,A,]E,E, E2 D | A,,A,,[A,,F,] [A,,E,]3 |] %24
V:3
 x6 | x6 | x6 | x6 | x6 | x6 | .[E,A,]3 z3 | x6 | z3 [A,,A,]3 | x6 | z3 .[D,F,]3 | x6 | %12
 z3 [A,,A,]3 | x6 | x6 | E,6 | z3 [A,,A,]3 | x6 | z3 .A,3 | x6 | z3 [D,A,]3 | x6 | z3 [E,G,]3 | %23
 x6 |] %24
V:4
 x6 | x6 | x6 | x6 | x6 | x6 | x6 | x6 | z A,A, [Fd]c=c | z A,A, [CA]3 | %10
 z[K:bass] F,F,[K:treble] [GB]A[A,DF] | A,A,A, A,3 | z A,A, [Fd]c=c | z A,A, [CA]3 | %14
 z A,A, [^Dc]2 [DB] | z GF E^D=D | z A,A, [Fd]c=c | z A,A, [CA]3 | z CC [C=GA][GB][EGc] | %19
 DA,A, A,3 | z A,A, F-[FA]F | A,A,A, [CA]3 | z A,A, c2 B | [A,C-][E,C]D C3 |] %24

